X:056
U: ~ = !turn!
%%topmargin 3cm
T:Dowd's Favorite
U: ~ = !turn!
%%topmargin 3cm
T:(Alternate Key: Gm)
B:Traditional Irish Fiddle Tunes. Randy Miller and Jack Perron.
S:Andy McGann
Z:Transcribed by Ralph Palmer
R:Reel
M:C|
L:1/8
K:Dm
DGGA BABF | DF ~F2 CFAF | DGGA BABd | ((3cBA) fc AGGF |
DGGA [F2B2] [FB]F | DF ~F2 dFcF | DGGA BABd | ((3cBA) fc AGGA |]
[| B2 ((3dcB) FBdB FBdB cAFA | Bc ((3dcB) fBdB | cAFA BG G2 |
((3Bcd) Bd fBdc | ((3Bcd) Bd cAFA | GB ((3ABc) Bbag | fdcA BG G2 |]
[| gd (3.d.d.d g2 ag | fc (3.c.c.c fgaf | gd (3.d.d.d gbag | fdcA BGBd |
((3gag) fa g2 ag | ((3fgf) dg fdcA | GB ((3ABc) Bbag | fdcA BGAF |]
